X:118
%%etbk:tnset id:42,pos:1,rep:3x,ant:
%%etbk:wsite http://www.thesession.org/tunes/display/901
%%etbk:pldat 2016-08-02T15:21,2016-07-26T16:12,2015-01-20T17:21,2015-01-18T14:06,2015-01-07T17:29,2014-11-25T19:03,2014-06-07T15:09,2014-05-07T15:55,2014-04-27T15:28,2014-03-25T16:46,2014-02-11T17:18,2013-11-23T15:38,2013-05-21T16:08,2013-05-01T16:23
T: Speed The Plough
Z: Piano Box Version by Martin Fleischmann
H: Created 2013-02-19 /  Last Modified 2013-02-19
M: 4/4
L: 1/8
R: reel
K: Dmaj
|: "D"!4!d3!1!A {d}!2!B!1!A!2!F!5!B |!4!A!2!FF{A}F !1!E!2!F!1!D!2!E | !3!F2!5!A!3!F "G"!1!G2!2!B!1!G | "A"!1!A!2!B!3!d!4!e !3!fgfe|
"D"!1!!4!d3!1!A {d}!2!B!1!A!2!F!5!B |!4!A!2!FF{A}F !1!E!2!F!1!D!2!E | !3!F2!5!A!3!F "G"!1!G2!2!B!1!G |1 "A"!1!A!2!B!3!d!4!e "D"!3!f!1!dd2:|2 "A"!1!ABd!4!e "D"!3!f!1!dd2||
|: "D"!3!f2!5!af afdf | "A"!4!ge!3!fd !2!e!1!d!2!B!1!d | "D"!3!f2af af!1!d!2!B | "A"!1!ABd!4!e !3!f!2!ee2 | 
"D"!3!f2af afdf | "A"!4!gefd {g}!2!e!1!d!2!B!1!A | !2!F2!3!A!2!F "G"!1!G2!2!B!1!G | [1 "A"!1!ABd!4!e "D"!3!fdd2:|2 "A"!1!ABd!4!e "D"!3!f!1!dd2||


